public/icons/available.svg

<svg width="20" height="21" viewBox="0 0 20 21" fill="none" xmlns="http://www.w3.org/2000/svg">
<rect y="0.5" width="20" height="20" rx="10" fill="#136AD0"/>
<path d="M14.8224 6.93858L9.35058 15.1444C9.22008 15.3358 9.02549 15.4611 8.81053 15.4924C8.59557 15.5236 8.37827 15.4581 8.20745 15.3105L4.30003 11.8582C3.95523 11.5533 3.8994 10.9972 4.17533 10.6162C4.45126 10.2351 4.95447 10.1734 5.29927 10.4783L8.55759 13.3591L13.5354 5.89352C13.6986 5.62284 13.9832 5.47319 14.2763 5.50398C14.5693 5.53477 14.8233 5.74102 14.9374 6.04085C15.0516 6.34068 15.0074 6.68556 14.8224 6.93858Z" fill="white"/>
</svg>

<svg xmlns="http://www.w3.org/2000/svg" width="20" height="21" fill="none"><rect width="20" height="20" y=".5" fill="#136AD0" rx="10"/><path fill="#fff" d="m14.822 6.939-5.471 8.205a.8.8 0 0 1-.54.348.75.75 0 0 1-.604-.182L4.3 11.859c-.345-.305-.4-.86-.125-1.242.276-.38.78-.443 1.124-.138l3.259 2.881 4.977-7.465a.78.78 0 0 1 .741-.39c.293.03.547.237.661.537.115.3.07.645-.115.898"/></svg>
